; G-Code generated by Simplify3D(R) Version 4.0.0
; May 21, 2018 at 8:09:41 AM
; Settings Summary
;   processName,Process1
;   applyToModels,IMU_Proto
;   profileName,Default (modified)
;   profileVersion,2017-03-01 08:00:00
;   baseProfile,
;   printMaterial,PLA
;   printQuality,Medium
;   printExtruders,
;   extruderName,Primary Extruder
;   extruderToolheadNumber,0
;   extruderDiameter,0.4
;   extruderAutoWidth,1
;   extruderWidth,0.48
;   extrusionMultiplier,1
;   extruderUseRetract,1
;   extruderRetractionDistance,1
;   extruderExtraRestartDistance,0
;   extruderRetractionZLift,0
;   extruderRetractionSpeed,1800
;   extruderUseCoasting,0
;   extruderCoastingDistance,0.2
;   extruderUseWipe,0
;   extruderWipeDistance,5
;   primaryExtruder,0
;   layerHeight,0.2
;   topSolidLayers,3
;   bottomSolidLayers,3
;   perimeterOutlines,2
;   printPerimetersInsideOut,1
;   startPointOption,2
;   startPointOriginX,0
;   startPointOriginY,0
;   sequentialIslands,0
;   spiralVaseMode,0
;   firstLayerHeightPercentage,90
;   firstLayerWidthPercentage,100
;   firstLayerUnderspeed,0.5
;   useRaft,1
;   raftExtruder,0
;   raftTopLayers,3
;   raftBaseLayers,2
;   raftOffset,3
;   raftSeparationDistance,0.14
;   raftTopInfill,100
;   aboveRaftSpeedMultiplier,0.3
;   useSkirt,1
;   skirtExtruder,0
;   skirtLayers,1
;   skirtOutlines,3
;   skirtOffset,4
;   usePrimePillar,0
;   primePillarExtruder,999
;   primePillarWidth,12
;   primePillarLocation,7
;   primePillarSpeedMultiplier,1
;   useOozeShield,0
;   oozeShieldExtruder,999
;   oozeShieldOffset,2
;   oozeShieldOutlines,1
;   oozeShieldSidewallShape,1
;   oozeShieldSidewallAngle,30
;   oozeShieldSpeedMultiplier,1
;   infillExtruder,0
;   internalInfillPattern,Rectilinear
;   externalInfillPattern,Rectilinear
;   infillPercentage,30
;   outlineOverlapPercentage,15
;   infillExtrusionWidthPercentage,100
;   minInfillLength,5
;   infillLayerInterval,1
;   internalInfillAngles,45,-45
;   overlapInternalInfillAngles,0
;   externalInfillAngles,45,-45
;   generateSupport,1
;   supportExtruder,0
;   supportInfillPercentage,30
;   supportExtraInflation,0
;   supportBaseLayers,0
;   denseSupportExtruder,0
;   denseSupportLayers,0
;   denseSupportInfillPercentage,70
;   supportLayerInterval,1
;   supportHorizontalPartOffset,0.3
;   supportUpperSeparationLayers,1
;   supportLowerSeparationLayers,1
;   supportType,0
;   supportGridSpacing,4
;   maxOverhangAngle,45
;   supportAngles,0
;   temperatureName,Primary Extruder
;   temperatureNumber,0
;   temperatureSetpointCount,2
;   temperatureSetpointLayers,1,3
;   temperatureSetpointTemperatures,230,180
;   temperatureStabilizeAtStartup,1
;   temperatureHeatedBed,0
;   temperatureRelayBetweenLayers,0
;   temperatureRelayBetweenLoops,0
;   fanLayers,1,2
;   fanSpeeds,0,100
;   blipFanToFullPower,0
;   adjustSpeedForCooling,1
;   minSpeedLayerTime,15
;   minCoolingSpeedSlowdown,20
;   increaseFanForCooling,0
;   minFanLayerTime,45
;   maxCoolingFanSpeed,100
;   increaseFanForBridging,0
;   bridgingFanSpeed,100
;   use5D,1
;   relativeEdistances,0
;   allowEaxisZeroing,1
;   independentExtruderAxes,0
;   includeM10123,0
;   stickySupport,1
;   applyToolheadOffsets,0
;   gcodeXoffset,0
;   gcodeYoffset,0
;   gcodeZoffset,0
;   overrideMachineDefinition,0
;   machineTypeOverride,0
;   strokeXoverride,200
;   strokeYoverride,200
;   strokeZoverride,200
;   originOffsetXoverride,0
;   originOffsetYoverride,0
;   originOffsetZoverride,0
;   homeXdirOverride,-1
;   homeYdirOverride,-1
;   homeZdirOverride,-1
;   flipXoverride,1
;   flipYoverride,-1
;   flipZoverride,1
;   toolheadOffsets,0,0|0,0|0,0|0,0|0,0|0,0
;   overrideFirmwareConfiguration,0
;   firmwareTypeOverride,RepRap (Marlin/Repetier/Sprinter)
;   GPXconfigOverride,r2
;   baudRateOverride,115200
;   overridePrinterModels,0
;   printerModelsOverride
;   startingGcode,
;   layerChangeGcode,
;   retractionGcode,
;   toolChangeGcode,
;   endingGcode,M104 S0 ; turn off extruder,M140 S0 ; turn off bed,G92 X0 Y0 Z0,G1 X10 Y10 Z10,M84 ; disable motors
;   exportFileFormat,gcode
;   celebration,0
;   celebrationSong,Random Song
;   postProcessing,
;   defaultSpeed,5000
;   outlineUnderspeed,0.5
;   solidInfillUnderspeed,0.8
;   supportUnderspeed,0.8
;   rapidXYspeed,7000
;   rapidZspeed,200
;   minBridgingArea,50
;   bridgingExtraInflation,0
;   bridgingExtrusionMultiplier,1
;   bridgingSpeedMultiplier,1
;   useFixedBridgingAngle,0
;   fixedBridgingAngle,0
;   applyBridgingToPerimeters,0
;   filamentDiameters,1.75|1.75|1.75|1.75|1.75|1.75
;   filamentPricesPerKg,46|46|46|46|46|46
;   filamentDensities,1.25|1.25|1.25|1.25|1.25|1.25
;   useMinPrintHeight,0
;   minPrintHeight,0
;   useMaxPrintHeight,0
;   maxPrintHeight,0
;   useDiaphragm,0
;   diaphragmLayerInterval,20
;   robustSlicing,1
;   mergeAllIntoSolid,0
;   onlyRetractWhenCrossingOutline,1
;   retractBetweenLayers,1
;   useRetractionMinTravel,0
;   retractionMinTravel,3
;   retractWhileWiping,0
;   onlyWipeOutlines,1
;   avoidCrossingOutline,0
;   maxMovementDetourFactor,3
;   toolChangeRetractionDistance,12
;   toolChangeExtraRestartDistance,-0.5
;   toolChangeRetractionSpeed,600
;   externalThinWallType,0
;   internalThinWallType,2
;   thinWallAllowedOverlapPercentage,10
;   singleExtrusionMinLength,1
;   singleExtrusionMinPrintingWidthPercentage,50
;   singleExtrusionMaxPrintingWidthPercentage,200
;   singleExtrusionEndpointExtension,0.2
;   horizontalSizeCompensation,0
G90
M82
M106 S0
M104 S230 T0
M109 S230 T0
G92 E0
G1 E-1.0000 F1800
G1 Z0.450 F200
; process Process1
; layer 1, Z = 0.450
T0
; tool H0.500 W0.480
; skirt
G1 X-1.693 Y-2.164 F7000
G1 E0.0000 F540
G92 E0
G1 X-1.640 Y-2.211 E0.0071 F2500
G1 X-0.937 Y-2.767 E0.0965
G1 X-0.879 Y-2.807 E0.1036
G1 X0.018 Y-3.359 E0.2087
G1 X0.081 Y-3.392 E0.2157
G1 X0.894 Y-3.769 E0.3051
G1 X0.960 Y-3.795 E0.3122
G1 X2.109 Y-4.170 E0.4328
G1 X2.177 Y-4.188 E0.4399
G1 X3.056 Y-4.364 E0.5293
G1 X3.126 Y-4.374 E0.5364
G1 X3.881 Y-4.435 E0.6120
G1 X3.905 Y-4.436 E0.6143
G1 X4.209 Y-4.448 E0.6447
G1 X4.233 Y-4.449 E0.6471
G1 X59.536 Y-4.449 E6.1653
G1 X59.560 Y-4.449 E6.1676
G1 X59.858 Y-4.437 E6.1974
G1 X59.882 Y-4.435 E6.1998
G1 X60.480 Y-4.388 E6.2596
G1 X60.526 Y-4.383 E6.2643
G1 X61.110 Y-4.291 E6.3233
G1 X61.156 Y-4.282 E6.3279
G1 X62.032 Y-4.073 E6.4178
G1 X62.100 Y-4.052 E6.4249
G1 X62.941 Y-3.744 E6.5143
G1 X63.006 Y-3.715 E6.5213
G1 X64.218 Y-3.100 E6.6570
G1 X64.299 Y-3.051 E6.6664
G1 X65.267 Y-2.349 E6.7857
G1 X65.339 Y-2.288 E6.7951
G1 X66.408 Y-1.223 E6.9457
G1 X66.469 Y-1.151 E6.9551
G1 X67.174 Y-0.185 E7.0745
G1 X67.223 Y-0.105 E7.0839
G1 X67.910 Y1.239 E7.2344
G1 X67.946 Y1.326 E7.2438
G1 X68.318 Y2.463 E7.3632
G1 X68.340 Y2.554 E7.3726
G1 X68.532 Y3.752 E7.4936
G1 X68.537 Y3.799 E7.4983
G1 X68.585 Y4.400 E7.5585
G1 X68.587 Y4.448 E7.5632
G1 X68.587 Y32.049 E10.3173
G1 X68.585 Y32.096 E10.3220
G1 X68.539 Y32.690 E10.3814
G1 X68.533 Y32.736 E10.3861
G1 X68.345 Y33.927 E10.5063
G1 X68.323 Y34.018 E10.5157
G1 X67.956 Y35.152 E10.6346
G1 X67.920 Y35.238 E10.6440
G1 X67.306 Y36.448 E10.7794
G1 X67.271 Y36.509 E10.7864
G1 X66.774 Y37.255 E10.8759
G1 X66.731 Y37.312 E10.8829
G1 X66.048 Y38.114 E10.9880
G1 X65.999 Y38.165 E10.9951
G1 X65.342 Y38.775 E11.0845
G1 X65.287 Y38.820 E11.0916
G1 X64.310 Y39.532 E11.2122
G1 X64.251 Y39.570 E11.2193
G1 X63.470 Y40.009 E11.3087
G1 X63.406 Y40.040 E11.3157
G1 X62.434 Y40.444 E11.4208
G1 X62.367 Y40.468 E11.4279
G1 X61.504 Y40.712 E11.5174
G1 X61.435 Y40.728 E11.5244
G1 X60.386 Y40.896 E11.6304
G1 X60.339 Y40.901 E11.6352
G1 X59.738 Y40.949 E11.6954
G1 X59.690 Y40.951 E11.7001
G1 X4.089 Y40.951 E17.2480
G1 X4.042 Y40.949 E17.2527
G1 X3.449 Y40.903 E17.3121
G1 X3.402 Y40.897 E17.3168
G1 X2.212 Y40.709 E17.4370
G1 X2.120 Y40.687 E17.4464
G1 X0.986 Y40.320 E17.5653
G1 X0.900 Y40.284 E17.5747
G1 X-0.444 Y39.602 E17.7251
G1 X-0.525 Y39.553 E17.7345
G1 X-1.493 Y38.852 E17.8538
G1 X-1.565 Y38.790 E17.8632
G1 X-2.528 Y37.831 E17.9988
G1 X-2.575 Y37.778 E18.0059
G1 X-3.131 Y37.075 E18.0953
G1 X-3.171 Y37.017 E18.1024
G1 X-3.645 Y36.247 E18.1925
G1 X-3.668 Y36.206 E18.1972
G1 X-3.939 Y35.675 E18.2568
G1 X-3.959 Y35.632 E18.2615
G1 X-4.306 Y34.798 E18.3517
G1 X-4.330 Y34.731 E18.3587
G1 X-4.574 Y33.869 E18.4482
G1 X-4.590 Y33.800 E18.4552
G1 X-4.758 Y32.750 E18.5613
G1 X-4.763 Y32.703 E18.5660
G1 X-4.811 Y32.102 E18.6262
G1 X-4.813 Y32.054 E18.6309
G1 X-4.813 Y4.453 E21.3850
G1 X-4.811 Y4.406 E21.3897
G1 X-4.764 Y3.812 E21.4491
G1 X-4.759 Y3.766 E21.4538
G1 X-4.571 Y2.575 E21.5740
G1 X-4.549 Y2.484 E21.5834
G1 X-4.182 Y1.350 E21.7023
G1 X-4.146 Y1.264 E21.7117
G1 X-3.464 Y-0.080 E21.8620
G1 X-3.415 Y-0.160 E21.8714
G1 X-2.713 Y-1.129 E21.9908
G1 X-2.652 Y-1.201 E22.0002
G1 X-1.693 Y-2.164 E22.1358
G92 E0
G1 E-1.0000 F1800
G1 X-1.363 Y-1.815 F7000
G1 E0.0000 F1800
G92 E0
G1 X-1.331 Y-1.843 E0.0042 F2500
G1 X-0.650 Y-2.382 E0.0909
G1 X-0.615 Y-2.406 E0.0951
G1 X0.258 Y-2.943 E0.1974
G1 X0.295 Y-2.963 E0.2016
G1 X1.083 Y-3.327 E0.2882
G1 X1.122 Y-3.343 E0.2924
G1 X2.245 Y-3.709 E0.4102
G1 X2.286 Y-3.720 E0.4145
G1 X3.137 Y-3.891 E0.5011
G1 X3.179 Y-3.897 E0.5053
G1 X3.915 Y-3.956 E0.5790
G1 X3.929 Y-3.957 E0.5805
G1 X4.224 Y-3.969 E0.6099
G1 X4.238 Y-3.969 E0.6113
G1 X59.532 Y-3.969 E6.1285
G1 X59.546 Y-3.969 E6.1299
G1 X59.835 Y-3.957 E6.1588
G1 X59.849 Y-3.957 E6.1602
G1 X60.433 Y-3.911 E6.2187
G1 X60.461 Y-3.907 E6.2215
G1 X61.026 Y-3.818 E6.2786
G1 X61.054 Y-3.813 E6.2814
G1 X61.907 Y-3.609 E6.3689
G1 X61.948 Y-3.597 E6.3731
G1 X62.763 Y-3.298 E6.4597
G1 X62.801 Y-3.281 E6.4640
G1 X63.984 Y-2.681 E6.5963
G1 X64.032 Y-2.651 E6.6019
G1 X64.971 Y-1.972 E6.7175
G1 X65.014 Y-1.935 E6.7232
G1 X66.056 Y-0.896 E6.8700
G1 X66.092 Y-0.853 E6.8756
G1 X66.775 Y0.083 E6.9912
G1 X66.804 Y0.131 E6.9968
G1 X67.474 Y1.441 E7.1436
G1 X67.496 Y1.493 E7.1493
G1 X67.856 Y2.594 E7.2649
G1 X67.869 Y2.649 E7.2705
G1 X68.056 Y3.818 E7.3887
G1 X68.059 Y3.846 E7.3915
G1 X68.106 Y4.429 E7.4498
G1 X68.107 Y4.457 E7.4526
G1 X68.107 Y32.039 E10.2048
G1 X68.106 Y32.068 E10.2076
G1 X68.061 Y32.643 E10.2652
G1 X68.057 Y32.671 E10.2680
G1 X67.874 Y33.833 E10.3854
G1 X67.861 Y33.888 E10.3910
G1 X67.505 Y34.986 E10.5062
G1 X67.484 Y35.038 E10.5118
G1 X66.885 Y36.218 E10.6439
G1 X66.863 Y36.255 E10.6481
G1 X66.382 Y36.978 E10.7347
G1 X66.356 Y37.011 E10.7390
G1 X65.692 Y37.792 E10.8413
G1 X65.663 Y37.823 E10.8455
G1 X65.026 Y38.413 E10.9321
G1 X64.993 Y38.440 E10.9364
G1 X64.039 Y39.135 E11.0542
G1 X64.003 Y39.158 E11.0584
G1 X63.247 Y39.584 E11.1450
G1 X63.209 Y39.602 E11.1492
G1 X62.263 Y39.996 E11.2515
G1 X62.222 Y40.010 E11.2557
G1 X61.387 Y40.247 E11.3424
G1 X61.346 Y40.256 E11.3466
G1 X60.320 Y40.420 E11.4503
G1 X60.291 Y40.423 E11.4531
G1 X59.709 Y40.470 E11.5114
G1 X59.681 Y40.471 E11.5143
G1 X4.099 Y40.471 E17.0602
G1 X4.070 Y40.470 E17.0631
G1 X3.495 Y40.425 E17.1206
G1 X3.467 Y40.421 E17.1234
G1 X2.305 Y40.238 E17.2408
G1 X2.250 Y40.225 E17.2465
G1 X1.152 Y39.869 E17.3616
G1 X1.100 Y39.848 E17.3673
G1 X-0.210 Y39.183 E17.5139
G1 X-0.258 Y39.153 E17.5195
G1 X-1.196 Y38.474 E17.6351
G1 X-1.240 Y38.437 E17.6407
G1 X-2.179 Y37.501 E17.7730
G1 X-2.207 Y37.469 E17.7773
G1 X-2.745 Y36.788 E17.8639
G1 X-2.770 Y36.754 E17.8681
G1 X-3.231 Y36.004 E17.9559
G1 X-3.245 Y35.979 E17.9588
G1 X-3.508 Y35.465 E18.0164
G1 X-3.520 Y35.439 E18.0193
G1 X-3.858 Y34.626 E18.1071
G1 X-3.872 Y34.586 E18.1113
G1 X-4.109 Y33.751 E18.1979
G1 X-4.118 Y33.710 E18.2022
G1 X-4.282 Y32.684 E18.3058
G1 X-4.285 Y32.655 E18.3087
G1 X-4.332 Y32.073 E18.3670
G1 X-4.333 Y32.045 E18.3698
G1 X-4.333 Y4.463 E21.1220
G1 X-4.332 Y4.434 E21.1248
G1 X-4.287 Y3.859 E21.1823
G1 X-4.283 Y3.831 E21.1852
G1 X-4.100 Y2.669 E21.3026
G1 X-4.087 Y2.614 E21.3082
G1 X-3.731 Y1.516 E21.4234
G1 X-3.710 Y1.464 E21.4290
G1 X-3.045 Y0.154 E21.5756
G1 X-3.015 Y0.106 E21.5812
G1 X-2.336 Y-0.832 E21.6968
G1 X-2.299 Y-0.876 E21.7024
G1 X-1.363 Y-1.815 E21.8348
G92 E0
G1 E-1.0000 F1800
G1 X-1.033 Y-1.466 F7000
G1 E0.0000 F1800
G92 E0
G1 X-1.022 Y-1.475 E0.0014 F2500
G1 X-0.364 Y-1.996 E0.0852
G1 X-0.352 Y-2.004 E0.0866
G1 X0.497 Y-2.526 E0.1861
G1 X0.509 Y-2.533 E0.1875
G1 X1.271 Y-2.886 E0.2713
G1 X1.285 Y-2.891 E0.2727
G1 X2.380 Y-3.249 E0.3877
G1 X2.394 Y-3.252 E0.3891
G1 X3.217 Y-3.418 E0.4729
G1 X3.231 Y-3.420 E0.4743
G1 X3.948 Y-3.477 E0.5461
G1 X3.953 Y-3.477 E0.5466
G1 X4.238 Y-3.489 E0.5750
G1 X4.243 Y-3.489 E0.5755
G1 X59.527 Y-3.489 E6.0917
G1 X59.532 Y-3.489 E6.0922
G1 X59.811 Y-3.478 E6.1201
G1 X59.816 Y-3.478 E6.1206
G1 X60.386 Y-3.433 E6.1777
G1 X60.395 Y-3.432 E6.1786
G1 X60.943 Y-3.345 E6.2339
G1 X60.952 Y-3.344 E6.2348
G1 X61.782 Y-3.146 E6.3200
G1 X61.796 Y-3.142 E6.3214
G1 X62.584 Y-2.852 E6.4052
G1 X62.597 Y-2.846 E6.4066
G1 X63.750 Y-2.261 E6.5356
G1 X63.766 Y-2.251 E6.5375
G1 X64.674 Y-1.594 E6.6493
G1 X64.688 Y-1.582 E6.6512
G1 X65.703 Y-0.570 E6.7943
G1 X65.716 Y-0.555 E6.7961
G1 X66.376 Y0.350 E6.9080
G1 X66.386 Y0.366 E6.9098
G1 X67.038 Y1.642 E7.0529
G1 X67.046 Y1.660 E7.0547
G1 X67.394 Y2.725 E7.1666
G1 X67.398 Y2.743 E7.1684
G1 X67.581 Y3.885 E7.2838
G1 X67.582 Y3.894 E7.2847
G1 X67.627 Y4.457 E7.3411
G1 X67.627 Y4.467 E7.3420
G1 X67.627 Y32.030 E10.0923
G1 X67.627 Y32.039 E10.0933
G1 X67.583 Y32.596 E10.1489
G1 X67.582 Y32.605 E10.1499
G1 X67.403 Y33.740 E10.2645
G1 X67.398 Y33.758 E10.2664
G1 X67.054 Y34.820 E10.3778
G1 X67.047 Y34.837 E10.3796
G1 X66.463 Y35.989 E10.5084
G1 X66.456 Y36.001 E10.5098
G1 X65.990 Y36.700 E10.5936
G1 X65.982 Y36.711 E10.5950
G1 X65.336 Y37.470 E10.6945
G1 X65.326 Y37.480 E10.6959
G1 X64.710 Y38.051 E10.7797
G1 X64.699 Y38.060 E10.7812
G1 X63.768 Y38.739 E10.8962
G1 X63.756 Y38.747 E10.8976
G1 X63.024 Y39.158 E10.9813
G1 X63.011 Y39.164 E10.9827
G1 X62.091 Y39.547 E11.0822
G1 X62.078 Y39.552 E11.0836
G1 X61.270 Y39.781 E11.1674
G1 X61.256 Y39.784 E11.1688
G1 X60.253 Y39.945 E11.2701
G1 X60.244 Y39.946 E11.2711
G1 X59.681 Y39.991 E11.3274
G1 X59.671 Y39.991 E11.3284
G1 X4.108 Y39.991 E16.8725
G1 X4.099 Y39.991 E16.8734
G1 X3.542 Y39.947 E16.9291
G1 X3.533 Y39.946 E16.9300
G1 X2.398 Y39.767 E17.0447
G1 X2.380 Y39.762 E17.0465
G1 X1.318 Y39.418 E17.1580
G1 X1.300 Y39.411 E17.1598
G1 X0.024 Y38.763 E17.3027
G1 X0.008 Y38.753 E17.3045
G1 X-0.900 Y38.096 E17.4164
G1 X-0.914 Y38.084 E17.4182
G1 X-1.830 Y37.171 E17.5473
G1 X-1.839 Y37.160 E17.5487
G1 X-2.360 Y36.502 E17.6325
G1 X-2.368 Y36.490 E17.6339
G1 X-2.817 Y35.761 E17.7193
G1 X-2.822 Y35.752 E17.7203
G1 X-3.076 Y35.254 E17.7761
G1 X-3.080 Y35.246 E17.7770
G1 X-3.409 Y34.455 E17.8625
G1 X-3.414 Y34.442 E17.8639
G1 X-3.643 Y33.634 E17.9477
G1 X-3.646 Y33.620 E17.9491
G1 X-3.807 Y32.617 E18.0504
G1 X-3.808 Y32.608 E18.0514
G1 X-3.852 Y32.045 E18.1078
G1 X-3.853 Y32.035 E18.1087
G1 X-3.853 Y4.472 E20.8590
G1 X-3.853 Y4.463 E20.8599
G1 X-3.809 Y3.906 E20.9156
G1 X-3.808 Y3.897 E20.9165
G1 X-3.629 Y2.762 E21.0311
G1 X-3.624 Y2.744 E21.0330
G1 X-3.280 Y1.682 E21.1444
G1 X-3.273 Y1.665 E21.1463
G1 X-2.625 Y0.388 E21.2891
G1 X-2.615 Y0.372 E21.2910
G1 X-1.958 Y-0.536 E21.4028
G1 X-1.946 Y-0.550 E21.4047
G1 X-1.033 Y-1.466 E21.5337
G92 E0
G1 E-1.0000 F1800
; tool H0.500 W0.800
; raft
G1 X1.910 Y2.137 F7000
G1 E0.0000 F1800
G92 E0
G1 X2.184 Y1.902 E0.0601 F625
G1 X2.349 Y1.782 E0.0941
G1 X2.657 Y1.593 E0.1541
G1 X2.839 Y1.500 E0.1881
G1 X3.172 Y1.361 E0.2482
G1 X3.366 Y1.297 E0.2821
G1 X3.717 Y1.213 E0.3422
G1 X3.919 Y1.180 E0.3762
G1 X4.229 Y1.155 E0.4279
G1 X4.333 Y1.151 E0.4453
G1 X59.438 Y1.151 E9.6092
G1 X59.540 Y1.155 E9.6262
G1 X59.847 Y1.179 E9.6774
G1 X60.047 Y1.211 E9.7110
G1 X60.397 Y1.294 E9.7709
G1 X60.591 Y1.357 E9.8048
G1 X60.925 Y1.495 E9.8649
G1 X61.107 Y1.587 E9.8989
G1 X61.416 Y1.775 E9.9590
G1 X61.581 Y1.895 E9.9930
G1 X61.856 Y2.129 E10.0530
G1 X62.001 Y2.274 E10.0870
G1 X62.236 Y2.548 E10.1470
G1 X62.356 Y2.713 E10.1810
G1 X62.545 Y3.021 E10.2411
G1 X62.639 Y3.203 E10.2751
G1 X62.777 Y3.536 E10.3352
G1 X62.841 Y3.730 E10.3691
G1 X62.926 Y4.081 E10.4292
G1 X62.958 Y4.283 E10.4631
G1 X62.983 Y4.593 E10.5149
G1 X62.987 Y4.697 E10.5322
G1 X62.987 Y31.802 E15.0398
G1 X62.983 Y31.904 E15.0567
G1 X62.959 Y32.211 E15.1079
